images/icon-why-us-6.svg

<svg width="48" height="48" viewBox="0 0 48 48" fill="none" xmlns="http://www.w3.org/2000/svg">
<g clip-path="url(#clip0_107_946)">
<path fill-rule="evenodd" clip-rule="evenodd" d="M31.2811 0.849839C31.1644 0.914556 30.9892 1.08869 30.8915 1.23667C30.7295 1.4825 30.7141 1.68409 30.7135 3.55298C30.7126 6.54134 30.5891 6.41704 33.5586 6.41704C36.5257 6.41704 36.4043 6.53849 36.4043 3.57134C36.4043 0.60107 36.5283 0.724169 33.5402 0.728851C32.052 0.731238 31.4352 0.764285 31.2811 0.849839ZM32.0898 3.57134V5.04009H33.5586H35.0273V3.57134V2.10259H33.5586H32.0898V3.57134ZM38.1484 6.39428C37.5218 6.70731 37.5061 6.80525 37.5061 10.4102C37.5061 14.0152 37.5218 14.1131 38.1484 14.4261C38.4362 14.57 38.8095 14.5867 41.7285 14.5865C44.7988 14.5863 45.0043 14.5759 45.2811 14.407C45.8542 14.0577 45.8594 14.0214 45.859 10.3918C45.8587 7.25754 45.8501 7.09148 45.6734 6.80167C45.3389 6.25291 45.2014 6.23345 41.6626 6.23363C38.8067 6.23373 38.4359 6.25071 38.1484 6.39428ZM38.9746 10.4102V13.1182H41.7285H44.4824V10.4102V7.7022H41.7285H38.9746V10.4102ZM27.5 10.5251C26.8655 10.842 26.8577 10.8954 26.8577 14.9083C26.8577 18.9212 26.8655 18.9745 27.5 19.2914C27.7895 19.436 28.1782 19.4519 31.4289 19.452C35.4121 19.4522 35.413 19.4521 35.7654 18.874C35.9353 18.5955 35.9447 18.3885 35.9447 14.9083C35.9447 11.3869 35.937 11.2239 35.7593 10.9325C35.4816 10.4769 35.1084 10.3643 33.8758 10.3643C32.8203 10.3643 32.8075 10.3669 32.5418 10.6326C32.2155 10.959 32.2034 11.1905 32.4949 11.5296C32.706 11.7752 32.7592 11.7886 33.6423 11.8187L34.5684 11.8502V14.9169V17.9834H31.4473H28.3262V14.9172V11.8508L29.2063 11.819C30.0387 11.7889 30.0984 11.7732 30.3079 11.5296C30.5993 11.1906 30.5873 10.959 30.261 10.6326C29.9946 10.3663 29.9846 10.3643 28.907 10.3645C28.0573 10.3646 27.7514 10.3995 27.5 10.5251ZM17.2615 10.7662C16.8976 10.9274 16.4673 11.3889 16.3313 11.7639C16.2668 11.9417 16.2201 12.6429 16.216 13.4969L16.209 14.9311L15.3599 15.2272C14.8928 15.3899 14.1772 15.6842 13.7697 15.8812C13.3621 16.0781 12.9689 16.2393 12.8959 16.2393C12.823 16.2393 12.3303 15.8026 11.8011 15.269C11.2719 14.7353 10.716 14.2337 10.5656 14.1543C10.215 13.9691 9.44411 13.9688 9.09262 14.1538C8.76692 14.3252 5.26726 17.839 5.09991 18.1625C4.93871 18.4742 4.95423 19.2633 5.12791 19.592C5.20731 19.7424 5.70889 20.2983 6.2426 20.8275C6.77621 21.3567 7.21289 21.8509 7.21289 21.9259C7.21289 22.0007 7.05142 22.3939 6.85396 22.7996C6.6566 23.2052 6.3623 23.9192 6.19991 24.3863L5.90469 25.2354L4.47046 25.2424C2.90303 25.25 2.5989 25.315 2.15066 25.7381C1.63412 26.2256 1.61328 26.3598 1.61328 29.1966C1.61328 31.6485 1.62365 31.8083 1.80798 32.189C1.92512 32.431 2.15094 32.6895 2.37464 32.8377C2.73541 33.0767 2.79241 33.0849 4.28494 33.113C5.32995 33.1326 5.8509 33.1768 5.90919 33.2506C5.95647 33.3105 6.08893 33.6486 6.20358 34.002C6.31824 34.3554 6.59225 35.0327 6.81247 35.5071C7.03269 35.9815 7.21289 36.4119 7.21289 36.4634C7.21289 36.5151 6.74509 37.0357 6.17329 37.6205C5.29278 38.5209 5.11726 38.7494 5.0262 39.1131C4.96708 39.3493 4.93569 39.5971 4.95652 39.6639C4.97736 39.7306 5.02152 39.9091 5.05465 40.0606C5.13525 40.4291 8.66172 44.001 9.18652 44.2457C10.0053 44.6275 10.51 44.4064 11.8011 43.0997C12.3303 42.5642 12.8169 42.126 12.8824 42.126C12.9478 42.126 13.2584 42.2561 13.5725 42.4151C13.8865 42.5742 14.5979 42.8763 15.1533 43.0865L16.1631 43.4687L16.209 45.0305C16.2535 46.5443 16.2626 46.6038 16.5074 46.9735C16.9882 47.6995 17.115 47.7256 20.1572 47.7256C22.9711 47.7256 23.0947 47.7096 23.585 47.2788C23.9912 46.922 24.0558 46.641 24.1035 45.0198L24.1494 43.4614L25.0674 43.1293C25.5723 42.9465 26.2838 42.6461 26.6486 42.4615C27.0134 42.277 27.3652 42.126 27.4305 42.126C27.4958 42.126 27.9822 42.5642 28.5114 43.0997C29.7629 44.3662 30.1678 44.5613 31.0235 44.31C31.3235 44.2219 31.7302 43.8767 32.9972 42.6347C34.9523 40.7182 35.2715 40.3316 35.3542 39.78C35.4581 39.0878 35.2484 38.7175 34.1103 37.583C33.5545 37.0288 33.0996 36.5221 33.0996 36.4568C33.0996 36.3916 33.2506 36.0398 33.4351 35.675C33.6196 35.3102 33.9201 34.5987 34.1029 34.0938L34.435 33.1758L35.9934 33.1299C37.7376 33.0785 37.9443 33.018 38.3961 32.4259L38.6533 32.0889L38.68 29.3085C38.7056 26.6533 38.6983 26.5114 38.5176 26.1572C38.413 25.9522 38.158 25.6736 37.947 25.5338L37.5657 25.2813L35.3556 25.2553C33.3823 25.2321 33.1118 25.2469 32.8307 25.393C32.2341 25.7033 32.1467 25.9269 32.1055 27.2487L32.0686 28.4311L30.8128 28.4627C29.0599 28.5067 28.8292 28.6796 28.677 30.064C28.2071 34.3405 24.8654 37.5126 20.6372 37.6958C18.4909 37.7889 16.7484 37.2745 15.1038 36.0623C11.8183 33.6404 10.6968 29.1844 12.4499 25.5174C12.9339 24.5049 13.4714 23.7631 14.2602 23.019C15.0639 22.2608 15.5467 21.9277 16.5065 21.4689C18.1551 20.6807 20.031 20.4569 21.8881 20.8267C23.0802 21.0641 23.4127 21.0312 23.7891 20.6387L24.0576 20.3586L24.0866 18.8057L24.1155 17.2527L23.8842 17.0214C23.5891 16.7263 23.1931 16.7185 22.9261 17.0025C22.7428 17.1977 22.7266 17.3102 22.7266 18.3813V19.5475L22.4741 19.4913C22.3353 19.4605 22.1575 19.4181 22.0791 19.3973C22.0007 19.3766 21.5231 19.3201 21.0177 19.272C18.1282 18.9966 15.2234 20.0575 13.1273 22.1537C9.32046 25.9604 9.22214 32.0707 12.9043 36.0069C15.4043 38.6794 19.3068 39.7851 22.8186 38.8158C23.7233 38.5661 25.0351 37.9401 25.8859 37.3519C26.6693 36.8103 27.9431 35.5239 28.4303 34.7823C29.2474 33.5383 29.8209 32.0786 30.0111 30.7584L30.1257 29.9629L31.452 29.917C33.4014 29.8496 33.5586 29.6926 33.5586 27.8129V26.7004L35.4175 26.7252L37.2764 26.7501L37.301 29.1368C37.3232 31.2992 37.3108 31.5342 37.1687 31.6382C37.0592 31.7183 36.584 31.753 35.5974 31.753C33.5609 31.753 33.3698 31.8771 32.7752 33.5853C32.5929 34.1089 32.2815 34.86 32.0832 35.2544C31.4129 36.5876 31.5636 37.0872 33.0891 38.5899C33.5492 39.0433 33.9258 39.4766 33.9258 39.5529C33.9258 39.7352 30.7106 42.9522 30.5285 42.9522C30.4512 42.9522 29.9963 42.5568 29.5177 42.0737C28.0374 40.5793 27.5632 40.4383 26.2453 41.1009C25.8413 41.3041 25.0824 41.6193 24.5589 41.8016C22.842 42.3992 22.7266 42.5802 22.7266 44.6761C22.7266 45.8075 22.6977 46.1666 22.6005 46.2472C22.5116 46.3211 21.7746 46.3446 20.0991 46.3273L17.7236 46.3028L17.6764 44.7422C17.6117 42.6122 17.484 42.402 15.9231 41.8569C15.4505 41.6918 14.6718 41.3712 14.1927 41.1443C13.2424 40.6943 12.6831 40.6187 12.1986 40.875C12.0566 40.9501 11.5074 41.4482 10.9782 41.9819C10.449 42.5155 9.94082 42.9522 9.84902 42.9522C9.67112 42.9522 6.38672 39.7111 6.38672 39.5355C6.38672 39.4792 6.85828 38.9513 7.43467 38.3625C8.87561 36.8905 8.94684 36.5887 8.20219 35.1101C7.99702 34.7026 7.69051 33.9768 7.52124 33.4971C7.19224 32.5651 7.02792 32.2878 6.62714 31.9882C6.40058 31.8188 6.20514 31.794 4.77027 31.753C3.48034 31.7161 3.14969 31.6802 3.07983 31.5694C2.98555 31.4199 2.95719 27.25 3.04807 26.9107C3.10232 26.7085 3.13151 26.7042 4.44678 26.7036C5.18556 26.7033 5.95527 26.6577 6.15723 26.6023C6.75363 26.4384 7.21298 25.878 7.51242 24.9486C7.65186 24.5158 7.94653 23.7907 8.16712 23.3374C8.94152 21.7465 8.88727 21.5026 7.42503 19.9968C6.85396 19.4087 6.38672 18.8902 6.38672 18.8447C6.38672 18.7346 9.71472 15.4131 9.82497 15.4131C9.87225 15.4131 10.3502 15.8461 10.8873 16.3754C12.3846 17.8508 12.7808 17.9572 14.1727 17.2576C14.5606 17.0626 15.2388 16.7758 15.6798 16.6202C16.7163 16.2545 16.9623 16.123 17.2501 15.7808C17.6016 15.3631 17.6766 14.9575 17.6772 13.4723C17.6776 12.3315 17.6997 12.1196 17.823 12.0724C17.9028 12.0417 18.9739 12.0167 20.2031 12.0167C22.1124 12.0167 22.4591 12.0377 22.5823 12.1609C22.6977 12.2763 22.7266 12.5298 22.7266 13.43C22.7266 14.4872 22.7393 14.567 22.939 14.7546C23.2209 15.0193 23.598 15.009 23.8782 14.7288C24.0959 14.5111 24.1034 14.4606 24.1015 13.2371C24.0991 11.7238 23.9796 11.3542 23.3603 10.9441L22.9699 10.6856L20.2549 10.6642C18.1438 10.6476 17.4781 10.6703 17.2615 10.7662ZM38.5981 17.4588C38.1279 17.775 38.0677 18.0737 38.0618 20.1207C38.0562 22.1047 38.1098 22.3851 38.5628 22.7415C38.8056 22.9325 38.9004 22.9405 40.9193 22.9405C43.267 22.9405 43.4291 22.9063 43.6898 22.3569C43.8141 22.0949 43.8398 21.7051 43.8395 20.0809C43.839 17.1835 43.9065 17.2491 40.9205 17.2491C38.9786 17.2491 38.8993 17.2562 38.5981 17.4588ZM39.5254 20.0948V21.5635H40.9482H42.3711V20.0948V18.626H40.9482H39.5254V20.0948ZM25.9778 21.4664C25.8728 21.5103 25.6765 21.6772 25.5418 21.8373L25.2969 22.1284V24.2878V26.4471L25.6007 26.751C25.9956 27.1459 26.2842 27.1856 28.4832 27.1476C30.0978 27.1197 30.2621 27.1015 30.4999 26.9248C30.962 26.5812 30.9854 26.4503 30.9869 24.2013L30.9883 22.1116L30.6742 21.7687L30.3601 21.4258L28.2646 21.4063C27.112 21.3954 26.0829 21.4225 25.9778 21.4664ZM26.6738 24.2256V25.6944H28.1426H29.6113V24.2256V22.7569H28.1426H26.6738V24.2256ZM18.8041 24.9623C17.6 25.3558 16.4889 26.403 16.0136 27.5924C15.832 28.0471 15.7998 28.2925 15.798 29.2355L15.7959 30.344L16.1852 31.1296C17.5821 33.9486 21.189 34.5211 23.3532 32.2673C25.5261 30.0043 24.8316 26.4804 21.9467 25.1303C21.3822 24.8662 21.2114 24.8314 20.3454 24.805C19.5616 24.7811 19.2665 24.8112 18.8041 24.9623ZM19.4623 26.2336C18.5823 26.4624 17.7476 27.157 17.3721 27.9732C17.0867 28.5936 17.0928 29.784 17.3847 30.4219C17.6491 30.9998 18.2311 31.605 18.8252 31.92C19.228 32.1336 19.3909 32.1635 20.1562 32.1647C21.1763 32.1663 21.686 31.9722 22.3159 31.3423C22.9451 30.713 23.1397 30.2027 23.1392 29.1827C23.1388 28.4166 23.1091 28.2543 22.895 27.8479C22.599 27.2861 21.9393 26.6599 21.3858 26.415C20.9365 26.2163 19.9038 26.1189 19.4623 26.2336Z" fill="#1E84B5"/>
<path fill-rule="evenodd" clip-rule="evenodd" d="M31.2811 0.849839C31.1644 0.914556 30.9892 1.08869 30.8915 1.23667C30.7295 1.4825 30.7141 1.68409 30.7135 3.55298C30.7126 6.54134 30.5891 6.41704 33.5586 6.41704C36.5257 6.41704 36.4043 6.53849 36.4043 3.57134C36.4043 0.60107 36.5283 0.724169 33.5402 0.728851C32.052 0.731238 31.4352 0.764285 31.2811 0.849839ZM32.0898 3.57134V5.04009H33.5586H35.0273V3.57134V2.10259H33.5586H32.0898V3.57134ZM38.1484 6.39428C37.5218 6.70731 37.5061 6.80525 37.5061 10.4102C37.5061 14.0152 37.5218 14.1131 38.1484 14.4261C38.4362 14.57 38.8095 14.5867 41.7285 14.5865C44.7988 14.5863 45.0043 14.5759 45.2811 14.407C45.8542 14.0577 45.8594 14.0214 45.859 10.3918C45.8587 7.25754 45.8501 7.09148 45.6734 6.80167C45.3389 6.25291 45.2014 6.23345 41.6626 6.23363C38.8067 6.23373 38.4359 6.25071 38.1484 6.39428ZM38.9746 10.4102V13.1182H41.7285H44.4824V10.4102V7.7022H41.7285H38.9746V10.4102ZM27.5 10.5251C26.8655 10.842 26.8577 10.8954 26.8577 14.9083C26.8577 18.9212 26.8655 18.9745 27.5 19.2914C27.7895 19.436 28.1782 19.4519 31.4289 19.452C35.4121 19.4522 35.413 19.4521 35.7654 18.874C35.9353 18.5955 35.9447 18.3885 35.9447 14.9083C35.9447 11.3869 35.937 11.2239 35.7593 10.9325C35.4816 10.4769 35.1084 10.3643 33.8758 10.3643C32.8203 10.3643 32.8075 10.3669 32.5418 10.6326C32.2155 10.959 32.2034 11.1905 32.4949 11.5296C32.706 11.7752 32.7592 11.7886 33.6423 11.8187L34.5684 11.8502V14.9169V17.9834H31.4473H28.3262V14.9172V11.8508L29.2063 11.819C30.0387 11.7889 30.0984 11.7732 30.3079 11.5296C30.5993 11.1906 30.5873 10.959 30.261 10.6326C29.9946 10.3663 29.9846 10.3643 28.907 10.3645C28.0573 10.3646 27.7514 10.3995 27.5 10.5251ZM38.5981 17.4588C38.1279 17.775 38.0677 18.0737 38.0618 20.1207C38.0562 22.1047 38.1098 22.3851 38.5628 22.7415C38.8056 22.9325 38.9004 22.9405 40.9193 22.9405C43.267 22.9405 43.4291 22.9063 43.6898 22.3569C43.8141 22.0949 43.8398 21.7051 43.8395 20.0809C43.839 17.1835 43.9065 17.2491 40.9205 17.2491C38.9787 17.2491 38.8993 17.2562 38.5981 17.4588ZM39.5254 20.0948V21.5635H40.9482H42.3711V20.0948V18.626H40.9482H39.5254V20.0948ZM25.9778 21.4664C25.8728 21.5103 25.6765 21.6772 25.5418 21.8373L25.2969 22.1284V24.2878V26.4471L25.6007 26.751C25.9956 27.1459 26.2842 27.1856 28.4832 27.1476C30.0978 27.1197 30.2621 27.1015 30.4999 26.9248C30.962 26.5812 30.9854 26.4503 30.9869 24.2013L30.9883 22.1116L30.6742 21.7687L30.3601 21.4258L28.2646 21.4063C27.112 21.3954 26.0829 21.4225 25.9778 21.4664ZM26.6738 24.2256V25.6944H28.1426H29.6113V24.2256V22.7569H28.1426H26.6738V24.2256Z" fill="#0E384C"/>
</g>
<defs>
<clipPath id="clip0_107_946">
<rect width="47" height="47" fill="white" transform="translate(0.236328 0.725586)"/>
</clipPath>
</defs>
</svg>

<svg xmlns="http://www.w3.org/2000/svg" width="48" height="48" fill="none" viewBox="0 0 48 48"><g fill-rule="evenodd" clip-path="url(#a)" clip-rule="evenodd"><path fill="#1e84b5" d="M31.281.85a1.4 1.4 0 0 0-.39.387c-.161.245-.177.447-.177 2.316-.001 2.988-.125 2.864 2.845 2.864 2.967 0 2.845.121 2.845-2.846 0-2.97.124-2.847-2.864-2.842-1.488.002-2.105.035-2.259.12m.809 2.721v1.47h2.937V2.102H32.09zm6.058 2.823c-.626.313-.642.411-.642 4.016s.016 3.703.642 4.016c.288.144.661.16 3.58.16 3.07 0 3.276-.01 3.553-.179.573-.35.578-.386.578-4.015 0-3.134-.009-3.3-.186-3.59-.334-.55-.472-.569-4.01-.568-2.856 0-3.227.017-3.515.16m.827 4.016v2.708h5.507V7.702h-5.507zm-11.475.115c-.634.317-.642.37-.642 4.383s.008 4.066.642 4.383c.29.145.678.16 3.929.161 3.983 0 3.984 0 4.336-.578.17-.278.18-.485.18-3.966 0-3.521-.008-3.684-.186-3.976-.277-.455-.65-.568-1.883-.568-1.056 0-1.069.003-1.334.269-.327.326-.339.558-.047.897.211.245.264.259 1.147.289l.926.031v6.133h-6.242V11.85l.88-.032c.833-.03.892-.046 1.102-.29.291-.338.28-.57-.047-.896-.266-.267-.276-.269-1.354-.268-.85 0-1.156.034-1.407.16m-10.238.241c-.364.161-.795.623-.93.998-.065.178-.112.879-.116 1.733l-.007 1.434-.85.296c-.466.163-1.182.457-1.59.654-.407.197-.8.358-.873.358s-.566-.436-1.095-.97c-.53-.534-1.085-1.035-1.235-1.115-.351-.185-1.122-.185-1.473 0-.326.171-3.826 3.685-3.993 4.009-.161.311-.146 1.1.028 1.429.08.15.58.706 1.115 1.236.533.529.97 1.023.97 1.098s-.162.468-.359.874-.492 1.12-.654 1.586l-.295.85-1.435.006c-1.567.008-1.871.073-2.32.496-.516.488-.537.622-.537 3.459 0 2.451.01 2.611.195 2.992.117.242.343.5.567.649.36.239.417.247 1.91.275 1.045.02 1.566.064 1.624.138.047.06.18.398.295.751s.388 1.03.608 1.505.4.905.4.956c0 .052-.467.573-1.039 1.157-.88.9-1.056 1.13-1.147 1.493-.059.236-.09.484-.07.55.021.068.066.246.099.398.08.368 3.607 3.94 4.132 4.185.818.381 1.323.16 2.614-1.146.53-.536 1.016-.974 1.081-.974.066 0 .376.13.69.29.315.158 1.026.46 1.581.67l1.01.383.046 1.562c.044 1.513.054 1.573.298 1.943.481.726.608.752 3.65.752 2.814 0 2.938-.016 3.428-.447.406-.357.47-.638.518-2.26l.046-1.558.918-.332a17 17 0 0 0 1.582-.667c.364-.185.716-.336.781-.336s.552.438 1.081.974c1.252 1.266 1.657 1.461 2.512 1.21.3-.088.707-.433 1.974-1.675 1.955-1.917 2.275-2.303 2.357-2.855.104-.692-.106-1.062-1.244-2.197-.556-.554-1.01-1.06-1.01-1.126s.15-.417.335-.782.485-1.076.668-1.581l.332-.918 1.558-.046c1.745-.052 1.951-.112 2.403-.704l.257-.337.027-2.78c.026-2.656.018-2.798-.162-3.152a2 2 0 0 0-.571-.623l-.381-.253-2.21-.026c-1.974-.023-2.244-.008-2.525.138-.597.31-.684.534-.726 1.856l-.036 1.182-1.256.032c-1.753.044-1.984.217-2.136 1.601-.47 4.276-3.812 7.449-8.04 7.632-2.146.093-3.889-.421-5.533-1.634-3.286-2.422-4.407-6.878-2.654-10.545.484-1.012 1.021-1.754 1.81-2.498.804-.758 1.287-1.091 2.246-1.55 1.65-.788 3.525-1.012 5.382-.642 1.192.237 1.525.204 1.901-.188l.269-.28.029-1.553.029-1.553-.232-.232c-.295-.295-.69-.303-.958-.018-.183.195-.2.307-.2 1.378v1.166l-.252-.056a10 10 0 0 1-.395-.094 15 15 0 0 0-1.061-.125c-2.89-.275-5.795.786-7.89 2.882a9.947 9.947 0 0 0-.224 13.853c2.5 2.672 6.403 3.778 9.915 2.809.904-.25 2.216-.876 3.067-1.464.783-.542 2.057-1.828 2.544-2.57.817-1.244 1.39-2.703 1.581-4.024l.115-.795 1.326-.046c1.95-.067 2.107-.224 2.107-2.104V26.7l1.858.025 1.86.025.024 2.387c.022 2.162.01 2.397-.132 2.501-.11.08-.585.115-1.572.115-2.036 0-2.227.124-2.822 1.832a17 17 0 0 1-.692 1.67c-.67 1.333-.52 1.832 1.006 3.335.46.453.837.887.837.963 0 .182-3.215 3.4-3.398 3.4-.077 0-.532-.396-1.01-.88-1.48-1.494-1.955-1.635-3.273-.972-.404.203-1.163.518-1.686.7-1.717.598-1.832.78-1.832 2.875 0 1.131-.03 1.49-.127 1.571-.088.074-.825.098-2.5.08l-2.376-.024-.048-1.56c-.064-2.13-.192-2.341-1.753-2.886a21 21 0 0 1-1.73-.713c-.95-.45-1.51-.525-1.994-.269-.142.075-.692.573-1.22 1.107-.53.534-1.038.97-1.13.97-.178 0-3.462-3.24-3.462-3.416 0-.057.471-.585 1.048-1.174 1.44-1.471 1.512-1.773.767-3.252a17 17 0 0 1-.68-1.613c-.33-.932-.494-1.21-.895-1.509-.226-.17-.422-.194-1.857-.235-1.29-.037-1.62-.073-1.69-.184-.094-.15-.123-4.319-.032-4.658.054-.203.084-.207 1.399-.207.739 0 1.508-.046 1.71-.102.597-.164 1.056-.724 1.355-1.653.14-.433.435-1.158.655-1.612.775-1.59.72-1.834-.742-3.34-.571-.588-1.038-1.107-1.038-1.152 0-.11 3.328-3.432 3.438-3.432.047 0 .525.433 1.062.962 1.498 1.476 1.894 1.582 3.286.883a16 16 0 0 1 1.507-.638c1.036-.366 1.282-.497 1.57-.84.352-.417.427-.822.427-2.308 0-1.14.023-1.352.146-1.4.08-.03 1.15-.055 2.38-.055 1.91 0 2.256.02 2.38.144.115.115.144.369.144 1.269 0 1.057.012 1.137.212 1.325.282.264.659.254.94-.026.217-.218.224-.268.223-1.492-.003-1.513-.122-1.883-.742-2.293l-.39-.258-2.715-.022c-2.111-.016-2.777.006-2.993.102m21.336 6.693c-.47.316-.53.615-.536 2.662-.006 1.984.048 2.264.5 2.62.244.192.338.2 2.357.2 2.348 0 2.51-.035 2.77-.584.125-.262.15-.652.15-2.276 0-2.898.068-2.832-2.919-2.832-1.941 0-2.02.007-2.322.21m.927 2.636v1.469h2.846v-2.938h-2.846zm-13.547 1.371c-.105.044-.302.211-.436.371l-.245.291v4.32l.304.303c.395.395.683.435 2.882.397 1.615-.028 1.78-.046 2.017-.223.462-.344.485-.475.487-2.724l.001-2.09-.314-.342-.314-.343-2.095-.02c-1.153-.01-2.182.017-2.287.06m.696 2.76v1.468h2.937v-2.938h-2.938zm-7.87.736c-1.204.394-2.315 1.441-2.79 2.63-.182.455-.214.7-.216 1.643l-.002 1.109.39.786c1.396 2.819 5.003 3.391 7.167 1.137 2.173-2.263 1.479-5.787-1.406-7.137-.565-.264-.736-.299-1.602-.325-.783-.024-1.078.006-1.54.157m.658 1.272c-.88.228-1.714.923-2.09 1.74-.285.62-.28 1.81.013 2.448.264.578.846 1.183 1.44 1.498.403.214.566.243 1.331.245 1.02.001 1.53-.193 2.16-.823s.824-1.14.823-2.16c0-.765-.03-.928-.244-1.334-.296-.562-.956-1.188-1.51-1.433-.449-.199-1.481-.296-1.923-.181"/><path fill="#0e384c" d="M31.281.85a1.4 1.4 0 0 0-.39.387c-.161.245-.177.447-.177 2.316-.001 2.988-.125 2.864 2.845 2.864 2.967 0 2.845.121 2.845-2.846 0-2.97.124-2.847-2.864-2.842-1.488.002-2.105.035-2.259.12m.809 2.721v1.47h2.937V2.102H32.09zm6.058 2.823c-.626.313-.642.411-.642 4.016s.016 3.703.642 4.016c.288.144.661.16 3.58.16 3.07 0 3.276-.01 3.553-.179.573-.35.578-.386.578-4.015 0-3.134-.009-3.3-.186-3.59-.334-.55-.472-.569-4.01-.568-2.856 0-3.227.017-3.515.16m.827 4.016v2.708h5.507V7.702h-5.507zm-11.475.115c-.634.317-.642.37-.642 4.383s.008 4.066.642 4.383c.29.145.678.16 3.929.161 3.983 0 3.984 0 4.336-.578.17-.278.18-.485.18-3.966 0-3.521-.008-3.684-.186-3.976-.277-.455-.65-.568-1.883-.568-1.056 0-1.069.003-1.334.269-.327.326-.339.558-.047.897.211.245.264.259 1.147.289l.926.031v6.133h-6.242V11.85l.88-.032c.833-.03.892-.046 1.102-.29.291-.338.28-.57-.047-.896-.266-.267-.276-.269-1.354-.268-.85 0-1.156.034-1.407.16m11.098 6.934c-.47.316-.53.615-.536 2.662-.006 1.984.048 2.264.5 2.62.244.192.338.2 2.357.2 2.348 0 2.51-.035 2.77-.584.125-.262.15-.652.15-2.276 0-2.898.068-2.832-2.919-2.832-1.941 0-2.02.007-2.322.21m.927 2.636v1.469h2.846v-2.938h-2.846zm-13.547 1.371c-.105.044-.302.211-.436.371l-.245.291v4.32l.304.303c.395.395.683.435 2.882.397 1.615-.028 1.78-.046 2.017-.223.462-.344.485-.475.487-2.724l.001-2.09-.314-.342-.314-.343-2.095-.02c-1.153-.01-2.182.017-2.287.06m.696 2.76v1.468h2.937v-2.938h-2.938z"/></g><defs><clipPath id="a"><path fill="#fff" d="M.236.726h47v47h-47z"/></clipPath></defs></svg>
